X: 596
%
T: Stumpie
C:
O:Scotland
B:Keith Norman MacDonald : "The Skye collection of the best reels & strathspeys extant" : 1887
Z:Ralph Palmer
R:Strathspey
M:C
L:1/8
K:A
d | c<e a2 (a/2g/2).f/2.e/2 a2 | (c<e) a2 (b<B)Bd | c<e a2 (b/2a/2).g/2.f/2 a2 | c>eB>d cAA :]
|: d | c<e-ed/2c/2 d<f-fe/2d/2 | c<e-ed/2c/2 f<BBd | c<e-ed/2c/2 d<f-fe/2d/2 | c<aB>d c<AA :]


